Simply-White-Circles/scalable/actions/document-open-folder.svg

<svg xmlns="http://www.w3.org/2000/svg" width="24" height="24" id="svg9"><defs id="defs3"><style id="current-color-scheme"></style></defs><path d="M3.52 4.25a1.52 1.52 0 0 0-1.53 1.52v2.54l.02.12v7.42h-.02v2.38c0 .84.68 1.52 1.52 1.52h16.97A1.52 1.52 0 0 0 22 18.23V5.95H11l-1.7-1.7zm.71 3.4h17.75v1.17H4.93v2.24c0 .43-.29.78-.64.78-.36 0-.64-.35-.64-.78V8.43l.02-.1-.02-.1c0-.3.22-.52.51-.56l.07-.01z" id="path819" stroke-width="2.36" fill="#e6e6e6"/></svg>

<?xml version="1.0" encoding="UTF-8" standalone="no"?>
<svg
   xmlns:dc="http://purl.org/dc/elements/1.1/"
   xmlns:cc="http://creativecommons.org/ns#"
   xmlns:rdf="http://www.w3.org/1999/02/22-rdf-syntax-ns#"
   xmlns:svg="http://www.w3.org/2000/svg"
   xmlns="http://www.w3.org/2000/svg"
   xmlns:sodipodi="http://sodipodi.sourceforge.net/DTD/sodipodi-0.dtd"
   xmlns:inkscape="http://www.inkscape.org/namespaces/inkscape"
   width="24"
   height="24"
   id="svg9"
   version="1.1"
   sodipodi:docname="document-open-folder.svg"
   inkscape:version="0.92.4 (5da689c313, 2019-01-14)">
  <metadata
     id="metadata8">
    <rdf:RDF>
      <cc:Work
         rdf:about="">
        <dc:format>image/svg+xml</dc:format>
        <dc:type
           rdf:resource="http://purl.org/dc/dcmitype/StillImage" />
        <dc:title></dc:title>
      </cc:Work>
    </rdf:RDF>
  </metadata>
  <sodipodi:namedview
     pagecolor="#ffffff"
     bordercolor="#666666"
     borderopacity="1"
     objecttolerance="10"
     gridtolerance="10"
     guidetolerance="10"
     inkscape:pageopacity="0"
     inkscape:pageshadow="2"
     inkscape:window-width="1078"
     inkscape:window-height="480"
     id="namedview6"
     showgrid="false"
     inkscape:zoom="9.8333333"
     inkscape:cx="-0.81355932"
     inkscape:cy="12"
     inkscape:window-x="0"
     inkscape:window-y="28"
     inkscape:window-maximized="0"
     inkscape:current-layer="svg9" />
  <defs
     id="defs3">
    <style
       id="current-color-scheme" />
  </defs>
  <path
     d="M 3.52,4.25 A 1.52,1.52 0 0 0 1.99,5.77 v 2.54 l 0.02,0.12 v 7.42 H 1.99 v 2.38 c 0,0.84 0.68,1.52 1.52,1.52 H 20.48 A 1.52,1.52 0 0 0 22,18.23 V 5.95 H 11 L 9.3,4.25 Z m 0.71,3.4 H 21.98 V 8.82 H 4.93 v 2.24 c 0,0.43 -0.29,0.78 -0.64,0.78 -0.36,0 -0.64,-0.35 -0.64,-0.78 V 8.43 L 3.67,8.33 3.65,8.23 c 0,-0.3 0.22,-0.52 0.51,-0.56 L 4.23,7.66 Z"
     id="path819"
     inkscape:connector-curvature="0"
     style="fill:#e6e6e6;stroke-width:2.3599999" />
</svg>
